static/assets/images/networks/blast-mono.svg

<svg width="388" height="256" viewBox="0 0 388 256" fill="none" xmlns="http://www.w3.org/2000/svg">
<path d="M305.722 125.707L366.908 95.2704L388 30.6449L345.817 0H64.9451L0 48.1563H330.155L312.614 102.358H180.217L167.479 141.967H299.875L278.673 207.01H93.3455L131.561 88.1824L89.169 56.4951L25.4769 256H262.704L324.726 225.355L346.861 156.977L305.305 126.541L305.722 125.707Z" fill="black"/>
</svg>

<svg xmlns="http://www.w3.org/2000/svg" fill="none" viewBox="0 0 388 256"><path fill="#000" d="m305.722 125.707 61.186-30.437L388 30.645 345.817 0H64.945L0 48.156h330.155l-17.541 54.202H180.217l-12.738 39.609h132.396l-21.202 65.043H93.346L131.56 88.182 89.169 56.495 25.477 256h237.227l62.022-30.645 22.135-68.378-41.556-30.436z"/></svg>
